t160 o3 l8 q70 @0 r4
c>c< c>c< c>c< c>c< c>c< c>c< c>c< c>c< c>c< c>c< c>c< c>c< c>c< c>c< c>c< c>c< <
a->a-< a->a-< a->a-< a->a-< a->a-< a->a-< a->a-< a->a-< a->a-< a->a-< a->a-< a->a-< b->b-< b->b-< b->b-< b->b-<  >
c>c< c>c< c>c< c>c< c>c< c>c< c>c< c>c< c>c< c>c< c>c< c>c< c>c< c>c< c>c< c>c< <
a->a-< a->a-< a->a-< a->a-< a->a-< a->a-< a->a-< a->a-< a->a-< a->a-< a->a-< a->a-< b->b-< b->b-< b->b-< b->b-<  >
